packages/kaspersky-hexa-ui-icons/src/iconsSVGs/16/Inherit.svg

<svg width="16" height="16" viewBox="0 0 16 16" fill="none" xmlns="http://www.w3.org/2000/svg">
<path d="M9.3718 13.8753C9.11795 14.1291 9.11795 14.5407 9.3718 14.7945C9.62564 15.0484 10.0372 15.0484 10.291 14.7945L13.4285 11.657C13.6824 11.4032 13.6824 10.9916 13.4285 10.7378L10.291 7.60031C10.0372 7.34647 9.62564 7.34647 9.3718 7.60031C9.11796 7.85415 9.11796 8.26571 9.3718 8.51955L11.3997 10.5475L7.61461 10.5475C5.44206 10.5475 3.68086 8.78627 3.68086 6.61372L3.68086 1.65003C3.68086 1.29104 3.38984 1 3.03086 1C2.67187 1 2.38086 1.29127 2.38086 1.65025L2.38086 6.61372C2.38086 9.50424 4.72409 11.8475 7.61461 11.8475L11.3996 11.8475L9.3718 13.8753Z" fill="black"/>
</svg>

<svg xmlns="http://www.w3.org/2000/svg" width="16" height="16" fill="none" viewBox="0 0 16 16"><path fill="#000" d="M9.372 13.8753a.65.65 0 1 0 .9192.9192l3.1375-3.1375a.65.65 0 0 0 0-.9192l-3.1375-3.1375a.65.65 0 0 0-.9193.9193l2.0279 2.0279h-3.785c-2.1726 0-3.9338-1.7612-3.9338-3.9338V1.65a.65.65 0 1 0-1.3.0003v4.9634c0 2.8905 2.3432 5.2338 5.2337 5.2338h3.785z"/></svg>
